packages/icons/src/SVG/note.svg

<svg width="12" height="12" viewBox="0 0 12 12" fill="none" xmlns="http://www.w3.org/2000/svg">
<path fill-rule="evenodd" clip-rule="evenodd" d="M1 11V1H11V9.20711L9.20711 11H1ZM7 10H2V2H10V7H7V10ZM10 8V8.79289L8.79289 10H8V8H10Z" fill="#4C505B"/>
</svg>

<!-- Generated by IcoMoon.io -->
<svg version="1.1" xmlns="http://www.w3.org/2000/svg" width="12" height="12" viewBox="0 0 12 12">
<title>note</title>
<path d="M1 11h8.207l1.793-1.793v-8.207h-10v10zM7 10h-5v-8h8v5h-3v3zM10 8v0.793l-1.207 1.207h-0.793v-2h2z"></path>
</svg>
